src/icons/vhdl.svg

<svg width="16" height="16" viewBox="0 0 16 16" fill="none" xmlns="http://www.w3.org/2000/svg">
<path d="M10.86 4.057H5.14C4.528 4.057 4.027 4.557 4.027 5.169V10.89C4.027 11.502 4.527 12.002 5.14 12.002H10.86C11.472 12.002 11.973 11.502 11.973 10.89V5.17C11.973 4.558 11.473 4.057 10.86 4.057ZM9.926 9.988H6.17V6.231H9.926V9.988ZM6.274 14H5.574V12.318H6.274V14ZM7.677 14H6.977V12.318H7.677V14ZM9.081 14H8.381V12.318H9.081V14ZM10.484 14H9.784V12.318H10.484V14ZM3.712 6.273H2V5.573H3.712V6.273ZM3.712 7.676H2V6.976H3.712V7.676ZM3.712 9.08H2V8.38H3.712V9.08ZM3.712 10.483H2V9.783H3.712V10.483ZM14 6.273H12.288V5.573H14V6.273ZM14 7.676H12.288V6.976H14V7.676ZM14 9.08H12.288V8.38H14V9.08ZM14 10.483H12.288V9.783H14V10.483ZM6.274 3.683H5.574V2H6.274V3.683ZM7.677 3.683H6.977V2H7.677V3.683ZM9.081 3.683H8.381V2H9.081V3.683ZM10.484 3.683H9.784V2H10.484V3.683ZM5.552 10.979C5.552 11.0785 5.51249 11.1738 5.44216 11.2442C5.37184 11.3145 5.27646 11.354 5.177 11.354C5.07754 11.354 4.98216 11.3145 4.91184 11.2442C4.84151 11.1738 4.802 11.0785 4.802 10.979C4.802 10.8795 4.84151 10.7842 4.91184 10.7138C4.98216 10.6435 5.07754 10.604 5.177 10.604C5.27646 10.604 5.37184 10.6435 5.44216 10.7138C5.51249 10.7842 5.552 10.8795 5.552 10.979Z" fill="#FFCB6B"/>
</svg>

<svg xmlns="http://www.w3.org/2000/svg" width="16" height="16" fill="none"><path fill="#FFCB6B" d="M10.86 4.057H5.14c-.612 0-1.113.5-1.113 1.112v5.721c0 .612.5 1.112 1.113 1.112h5.72c.612 0 1.113-.5 1.113-1.112V5.17c0-.612-.5-1.113-1.113-1.113m-.934 5.931H6.17V6.231h3.756zM6.274 14h-.7v-1.682h.7zm1.403 0h-.7v-1.682h.7zm1.404 0h-.7v-1.682h.7zm1.403 0h-.7v-1.682h.7zM3.712 6.273H2v-.7h1.712zm0 1.403H2v-.7h1.712zm0 1.404H2v-.7h1.712zm0 1.403H2v-.7h1.712zM14 6.273h-1.712v-.7H14zm0 1.403h-1.712v-.7H14zm0 1.404h-1.712v-.7H14zm0 1.403h-1.712v-.7H14zm-7.726-6.8h-.7V2h.7zm1.403 0h-.7V2h.7zm1.404 0h-.7V2h.7zm1.403 0h-.7V2h.7zm-4.932 7.296a.375.375 0 1 1-.75 0 .375.375 0 0 1 .75 0"/></svg>
